X: 1048
T: Aly's
R: waltz
M: 3/4
K: Gmajor
GA|B2 B>e d>B|A2 A>d BA|G2 G>A G>F|E2 F3G|
D2 G2 B2|c2 c2 B>A|G<D D2 B2|A2 A2 DG/A/|
B2 B>e d>B|A2 A>d B>A|G2 G>A GF|E2 F3G|
D2 G2 B2|c2 c>B A>G|E<G G2 F2|G2 G2 G2||
e2 e>f f>g|d2 d>f f>g|c2 c>B A<G|B2 B2 B2|
B2 B>c d<B|e2 e2 d>c|B<d G2 F>G|A2 A2 DG/A/|
B2 B>e ed/B/|A2 A>d B>A|G2 G>A G>F|E2 F3G|
D2 G2 B2|c2 c>B A>G|E<G G2 F2|G2 G2||

